assets/icons/add-to-cart.svg

<svg width="25" height="25" viewBox="0 0 25 25" fill="none" xmlns="http://www.w3.org/2000/svg">
<path d="M0.363281 0.848933C0.363281 0.636505 0.44767 0.432778 0.597884 0.282569C0.748098 0.13236 0.951831 0.0479736 1.16427 0.0479736H3.56722C3.74589 0.048023 3.91941 0.107806 4.06019 0.217817C4.20098 0.327827 4.30093 0.481747 4.34417 0.655101L4.99297 3.25181H23.5918C23.7094 3.25192 23.8256 3.27793 23.932 3.32798C24.0384 3.37804 24.1325 3.45092 24.2076 3.54144C24.2827 3.63197 24.3369 3.73791 24.3664 3.85176C24.3959 3.9656 24.4 4.08455 24.3784 4.20015L21.9754 17.0155C21.9411 17.199 21.8437 17.3648 21.7 17.4841C21.5564 17.6035 21.3756 17.6689 21.1889 17.6691H6.77115C6.58441 17.6689 6.40361 17.6035 6.25998 17.4841C6.11636 17.3648 6.01895 17.199 5.98459 17.0155L3.58324 4.22418L2.94245 1.64989H1.16427C0.951831 1.64989 0.748098 1.56551 0.597884 1.4153C0.44767 1.26509 0.363281 1.06136 0.363281 0.848933ZM5.33259 4.85373L7.43597 16.0672H20.524L22.6274 4.85373H5.33259ZM8.37312 17.6691C7.52338 17.6691 6.70845 18.0066 6.1076 18.6075C5.50674 19.2083 5.16919 20.0232 5.16919 20.8729C5.16919 21.7226 5.50674 22.5375 6.1076 23.1384C6.70845 23.7392 7.52338 24.0767 8.37312 24.0767C9.22286 24.0767 10.0378 23.7392 10.6386 23.1384C11.2395 22.5375 11.5771 21.7226 11.5771 20.8729C11.5771 20.0232 11.2395 19.2083 10.6386 18.6075C10.0378 18.0066 9.22286 17.6691 8.37312 17.6691ZM19.5869 17.6691C18.7372 17.6691 17.9222 18.0066 17.3214 18.6075C16.7205 19.2083 16.383 20.0232 16.383 20.8729C16.383 21.7226 16.7205 22.5375 17.3214 23.1384C17.9222 23.7392 18.7372 24.0767 19.5869 24.0767C20.4366 24.0767 21.2516 23.7392 21.8524 23.1384C22.4533 22.5375 22.7908 21.7226 22.7908 20.8729C22.7908 20.0232 22.4533 19.2083 21.8524 18.6075C21.2516 18.0066 20.4366 17.6691 19.5869 17.6691ZM8.37312 19.271C8.79799 19.271 9.20546 19.4398 9.50588 19.7402C9.80631 20.0406 9.97509 20.4481 9.97509 20.8729C9.97509 21.2978 9.80631 21.7052 9.50588 22.0056C9.20546 22.3061 8.79799 22.4748 8.37312 22.4748C7.94825 22.4748 7.54079 22.3061 7.24036 22.0056C6.93993 21.7052 6.77115 21.2978 6.77115 20.8729C6.77115 20.4481 6.93993 20.0406 7.24036 19.7402C7.54079 19.4398 7.94825 19.271 8.37312 19.271ZM19.5869 19.271C20.0118 19.271 20.4192 19.4398 20.7197 19.7402C21.0201 20.0406 21.1889 20.4481 21.1889 20.8729C21.1889 21.2978 21.0201 21.7052 20.7197 22.0056C20.4192 22.3061 20.0118 22.4748 19.5869 22.4748C19.162 22.4748 18.7546 22.3061 18.4541 22.0056C18.1537 21.7052 17.9849 21.2978 17.9849 20.8729C17.9849 20.4481 18.1537 20.0406 18.4541 19.7402C18.7546 19.4398 19.162 19.271 19.5869 19.271Z" fill="white"/>
</svg>

<svg xmlns="http://www.w3.org/2000/svg" width="25" height="25" viewBox="0 0 25 25"><path fill="currentColor" d="M.363.849a.8.8 0 0 1 .801-.801h2.403a.801.801 0 0 1 .777.607l.649 2.597h18.599a.801.801 0 0 1 .786.948l-2.403 12.815a.8.8 0 0 1-.786.654H6.77a.8.8 0 0 1-.786-.654L3.583 4.226l-.64-2.575H1.163a.801.801 0 0 1-.8-.801Zm4.97 4.005 2.103 11.213h13.088l2.103-11.213H5.333Zm3.04 12.815a3.204 3.204 0 1 0 0 6.408 3.204 3.204 0 0 0 0-6.408Zm11.214 0a3.204 3.204 0 1 0 0 6.407 3.204 3.204 0 0 0 0-6.407ZM8.373 19.271a1.602 1.602 0 1 1 0 3.204 1.602 1.602 0 0 1 0-3.204Zm11.214 0a1.602 1.602 0 1 1 0 3.204 1.602 1.602 0 0 1 0-3.204Z"/></svg>
